X: 18
T: VALSE
M: 3/4
L: 1/8
Q:1/4=99
K:G 
|B3/2A/2G3G|B3/2D/2G3G|FEF3/2G/2AD|1EFG G/2A/2B/2c/2d:|2EFG3G|!
|ABc AFE|FAG B3/2G/2D2|GFF/2G/2 A/2B/2c/2B/2c/2d/2|e/2f/2gf ed2|
BcA3/2F/2EF|AGB3/2G/2D2|GFF/2G/2 A/2B/2cA|FG3G|
